dist/img/conditions/conditions_5.svg

<svg width="44" height="44" viewBox="0 0 44 44" fill="none" xmlns="http://www.w3.org/2000/svg">
<path d="M16.5007 34.8333C16.5007 36.2083 16.1156 37.51 15.4373 38.61C14.1723 40.7367 11.844 42.1667 9.16732 42.1667C6.49065 42.1667 4.16232 40.7367 2.89732 38.61C2.21899 37.51 1.83398 36.2083 1.83398 34.8333C1.83398 30.7817 5.11565 27.5 9.16732 27.5C13.219 27.5 16.5007 30.7817 16.5007 34.8333Z" stroke="url(#paint0_linear_515_4716)" stroke-width="2" stroke-miterlimit="10" stroke-linecap="round" stroke-linejoin="round"/>
<path d="M6.30859 34.8324L8.1236 36.6474L12.0286 33.0358" stroke="url(#paint1_linear_515_4716)" stroke-width="2" stroke-linecap="round" stroke-linejoin="round"/>
<path d="M32.5449 12.9249C32.1049 12.8516 31.6466 12.8333 31.1699 12.8333H12.8366C12.3232 12.8333 11.8282 12.8699 11.3516 12.9433C11.6082 12.4299 11.9749 11.9533 12.4149 11.5133L18.3732 5.53666C20.8849 3.04332 24.9549 3.04332 27.4666 5.53666L30.6749 8.78158C31.8482 9.93658 32.4716 11.4033 32.5449 12.9249Z" stroke="url(#paint2_linear_515_4716)" stroke-width="2" stroke-linecap="round" stroke-linejoin="round"/>
<path d="M40.3327 22V31.1667C40.3327 36.6667 36.666 40.3333 31.166 40.3333H13.9877C14.556 39.8567 15.051 39.27 15.436 38.61C16.1143 37.51 16.4993 36.2083 16.4993 34.8333C16.4993 30.7817 13.2177 27.5 9.16602 27.5C6.96602 27.5 5.00435 28.4717 3.66602 29.9933V22C3.66602 17.0133 6.67268 13.53 11.3477 12.9433C11.8243 12.87 12.3193 12.8333 12.8327 12.8333H31.166C31.6427 12.8333 32.101 12.8517 32.541 12.925C37.271 13.475 40.3327 16.9767 40.3327 22Z" stroke="url(#paint3_linear_515_4716)" stroke-width="2" stroke-linecap="round" stroke-linejoin="round"/>
<path d="M40.3327 22.9167H34.8327C32.816 22.9167 31.166 24.5667 31.166 26.5833C31.166 28.6 32.816 30.25 34.8327 30.25H40.3327" stroke="url(#paint4_linear_515_4716)" stroke-width="2" stroke-linecap="round" stroke-linejoin="round"/>
<defs>
<linearGradient id="paint0_linear_515_4716" x1="1.83398" y1="34.8333" x2="16.5007" y2="34.8333" gradientUnits="userSpaceOnUse">
<stop stop-color="#B68C74"/>
<stop offset="1" stop-color="#865F46"/>
</linearGradient>
<linearGradient id="paint1_linear_515_4716" x1="6.30859" y1="34.8416" x2="12.0286" y2="34.8416" gradientUnits="userSpaceOnUse">
<stop stop-color="#B68C74"/>
<stop offset="1" stop-color="#865F46"/>
</linearGradient>
<linearGradient id="paint2_linear_515_4716" x1="11.3516" y1="8.30497" x2="32.5449" y2="8.30497" gradientUnits="userSpaceOnUse">
<stop stop-color="#B68C74"/>
<stop offset="1" stop-color="#865F46"/>
</linearGradient>
<linearGradient id="paint3_linear_515_4716" x1="3.66602" y1="26.5833" x2="40.3327" y2="26.5833" gradientUnits="userSpaceOnUse">
<stop stop-color="#B68C74"/>
<stop offset="1" stop-color="#865F46"/>
</linearGradient>
<linearGradient id="paint4_linear_515_4716" x1="31.166" y1="26.5833" x2="40.3327" y2="26.5833" gradientUnits="userSpaceOnUse">
<stop stop-color="#B68C74"/>
<stop offset="1" stop-color="#865F46"/>
</linearGradient>
</defs>
</svg>

<svg width="44" height="44" viewBox="0 0 44 44" fill="none" xmlns="http://www.w3.org/2000/svg"><path d="M16.5 34.833a7.189 7.189 0 01-1.063 3.777 7.278 7.278 0 01-6.27 3.557 7.278 7.278 0 01-6.27-3.557 7.188 7.188 0 01-1.063-3.777A7.331 7.331 0 019.167 27.5a7.331 7.331 0 017.334 7.333z" stroke="url(#paint0_linear_515_4716)" stroke-width="2" stroke-miterlimit="10" stroke-linecap="round" stroke-linejoin="round"/><path d="M6.309 34.832l1.815 1.815 3.905-3.611" stroke="url(#paint1_linear_515_4716)" stroke-width="2" stroke-linecap="round" stroke-linejoin="round"/><path d="M32.545 12.925a8.387 8.387 0 00-1.375-.092H12.837c-.514 0-1.009.037-1.485.11.256-.513.623-.99 1.063-1.43l5.958-5.976a6.462 6.462 0 019.094 0l3.208 3.245a6.186 6.186 0 011.87 4.143z" stroke="url(#paint2_linear_515_4716)" stroke-width="2" stroke-linecap="round" stroke-linejoin="round"/><path d="M40.333 22v9.167c0 5.5-3.667 9.166-9.167 9.166H13.988a6.587 6.587 0 001.448-1.723 7.189 7.189 0 001.063-3.777A7.331 7.331 0 009.166 27.5c-2.2 0-4.162.972-5.5 2.493V22c0-4.987 3.007-8.47 7.682-9.057a9.76 9.76 0 011.485-.11h18.333c.477 0 .935.019 1.375.092 4.73.55 7.792 4.052 7.792 9.075z" stroke="url(#paint3_linear_515_4716)" stroke-width="2" stroke-linecap="round" stroke-linejoin="round"/><path d="M40.333 22.917h-5.5a3.677 3.677 0 00-3.667 3.666 3.677 3.677 0 003.667 3.667h5.5" stroke="url(#paint4_linear_515_4716)" stroke-width="2" stroke-linecap="round" stroke-linejoin="round"/><defs><linearGradient id="paint0_linear_515_4716" x1="1.834" y1="34.833" x2="16.501" y2="34.833" gradientUnits="userSpaceOnUse"><stop stop-color="#B68C74"/><stop offset="1" stop-color="#865F46"/></linearGradient><linearGradient id="paint1_linear_515_4716" x1="6.309" y1="34.842" x2="12.029" y2="34.842" gradientUnits="userSpaceOnUse"><stop stop-color="#B68C74"/><stop offset="1" stop-color="#865F46"/></linearGradient><linearGradient id="paint2_linear_515_4716" x1="11.352" y1="8.305" x2="32.545" y2="8.305" gradientUnits="userSpaceOnUse"><stop stop-color="#B68C74"/><stop offset="1" stop-color="#865F46"/></linearGradient><linearGradient id="paint3_linear_515_4716" x1="3.666" y1="26.583" x2="40.333" y2="26.583" gradientUnits="userSpaceOnUse"><stop stop-color="#B68C74"/><stop offset="1" stop-color="#865F46"/></linearGradient><linearGradient id="paint4_linear_515_4716" x1="31.166" y1="26.583" x2="40.333" y2="26.583" gradientUnits="userSpaceOnUse"><stop stop-color="#B68C74"/><stop offset="1" stop-color="#865F46"/></linearGradient></defs></svg>
